!!!OTL: Sibao kang changgong
!!!ARE: Asia, China,ˇbei Henan, Lushi
!! IV, 140
!!!SCT: C1654
!!!YEM: Copyright 1995, estate of Helmut Schaffrath.
**kern
*ICvox
*Ivox
*M2/4
*k[b-e-]
*B-:
{8gg
8bb-
8gg
8ff
=1
4ff
4gg
=2
4ccc
8fff
8ddd
=3
[2ccc
=4
2ccc]}
=5
{8ddd
8ccc
8bb-
8gg
=6
4ff
8ff
8gg
=7
4ccc
8bb-
8gg
=8
2ff
=9
4ff
4r}
=10
{4gg
8gg
8ccc
=11
4gg
4bb-
=12
4gg
4ff
=13
2ff}
=14
{4dd
4ff
=15
4ff
8ff
8gg
=16
4ccc
8ddd
8ccc
=17
4bb-
8bb-
8gg}
=18
{4ccc
8bb-
8bb-
=19
4gg
8ff
8ff
=20
8gg
8bb-
8gg
8ff
=21
16gg
[8.ff
4ff_
=22
2ff]}
=23
{4ff
8ff
8gg
=24
2ccc
=25
8ddd
8ccc
8bb-
8gg
=26
2ff}
=27
{4.fff
8ccc
=28
4ddd
8ddd
8bb-
=29
2ccc}
=30
{4.ccc
8ddd
=31
4fff
8bbb-
8ggg
=32
4fff
8fff
8ddd
=33
4ccc
8bb-
8gg}
=34
{4ccc
4ccc
=35
4ff
8ff
8gg
=36
4ccc
8bb-
8gg
=37
[2ff
=38
8ff]
4dd
8r}
==
!!!AGN: Shange, MengjiangnÅ diao, Tianyang haozi, Lushi haozi
!! F ZHI-D JIAO
!!!AMT: simple duple
!!!AIN: vox
!!!EED: Helmut Schaffrath
!!!EEV: 1.0
*-
!!!ONB: Tied note syntax fixed by Craig Sapp, 2004/05/03/
